light/assets/img/about_me/logo/Group 1160444340.svg

<svg width="800" height="800" viewBox="0 0 800 800" fill="none" xmlns="http://www.w3.org/2000/svg">
<rect width="800" height="800" fill="#1E1E1E"/>
<g style="mix-blend-mode:luminosity" clip-path="url(#clip0_154_2643)">
<path d="M0 696.848C0 753.823 46.1829 800 103.152 800H696.848C753.823 800 800 753.817 800 696.848V103.152C800 46.1766 753.817 0 696.848 0H103.152C46.1766 0 0 46.1829 0 103.152V696.848Z" fill="#563D7C"/>
<path d="M331.743 353.869V240.577H431.467C440.964 240.577 450.123 241.368 458.942 242.951C467.761 244.534 475.563 247.361 482.347 251.431C489.131 255.502 494.558 261.155 498.628 268.391C502.699 275.627 504.734 284.899 504.734 296.205C504.734 316.557 498.628 331.256 486.417 340.301C474.206 349.346 458.603 353.869 439.608 353.869H331.743ZM225.234 157.812V642.188H459.96C481.668 642.188 502.811 639.474 523.39 634.047C543.968 628.62 562.284 620.253 578.34 608.946C594.395 597.639 607.171 583.054 616.669 565.19C626.167 547.325 630.915 526.182 630.915 501.759C630.915 471.458 623.566 445.566 608.868 424.083C594.169 402.6 571.895 387.563 542.045 378.97C563.754 368.568 580.149 355.226 591.229 338.944C602.31 322.663 607.85 302.311 607.85 277.889C607.85 255.275 604.119 236.28 596.656 220.903C589.194 205.526 578.679 193.202 565.111 183.931C551.543 174.659 535.262 167.988 516.266 163.918C497.271 159.848 476.241 157.812 453.176 157.812H225.234ZM331.743 559.423V426.457H447.748C470.814 426.457 489.357 431.772 503.377 442.4C517.397 453.028 524.407 470.779 524.407 495.654C524.407 508.317 522.259 518.719 517.962 526.86C513.666 535.001 507.9 541.446 500.663 546.194C493.427 550.943 485.06 554.335 475.563 556.37C466.065 558.406 456.115 559.423 445.713 559.423H331.743Z" fill="white"/>
</g>
<defs>
<clipPath id="clip0_154_2643">
<rect width="800" height="800" fill="white"/>
</clipPath>
</defs>
</svg>

<?xml version="1.0" encoding="UTF-8"?>
<svg id="Layer_1" data-name="Layer 1" xmlns="http://www.w3.org/2000/svg" xmlns:xlink="http://www.w3.org/1999/xlink" viewBox="0 0 800 800">
  <defs>
    <style>
      .cls-1 {
        fill: none;
      }

      .cls-1, .cls-2, .cls-3 {
        stroke-width: 0px;
      }

      .cls-2 {
        fill: #fff;
      }

      .cls-3 {
        fill: #4b4b4b;
      }

      .cls-4 {
        clip-path: url(#clippath);
      }

      .cls-5 {
        opacity: .3;
      }
    </style>
    <clipPath id="clippath">
      <rect class="cls-1" width="800" height="800"/>
    </clipPath>
  </defs>
  <g class="cls-5">
    <g class="cls-4">
      <g>
        <path class="cls-3" d="M0,696.85c0,56.97,46.18,103.15,103.15,103.15h593.7c56.97,0,103.15-46.18,103.15-103.15V103.15c0-56.98-46.18-103.15-103.15-103.15H103.15C46.18,0,0,46.18,0,103.15v593.7Z"/>
        <path class="cls-2" d="M331.74,353.87v-113.29h99.72c9.5,0,18.66.79,27.47,2.37,8.82,1.58,16.62,4.41,23.4,8.48,6.78,4.07,12.21,9.72,16.28,16.96,4.07,7.24,6.11,16.51,6.11,27.81,0,20.35-6.11,35.05-18.32,44.1-12.21,9.05-27.81,13.57-46.81,13.57h-107.86ZM225.23,157.81v484.38h234.73c21.71,0,42.85-2.71,63.43-8.14,20.58-5.43,38.89-13.79,54.95-25.1,16.05-11.31,28.83-25.89,38.33-43.76,9.5-17.86,14.25-39.01,14.25-63.43,0-30.3-7.35-56.19-22.05-77.68-14.7-21.48-36.97-36.52-66.82-45.11,21.71-10.4,38.1-23.74,49.18-40.03,11.08-16.28,16.62-36.63,16.62-61.05,0-22.61-3.73-41.61-11.19-56.99-7.46-15.38-17.98-27.7-31.54-36.97-13.57-9.27-29.85-15.94-48.85-20.01-18.99-4.07-40.02-6.11-63.09-6.11h-227.94ZM331.74,559.42v-132.97h116c23.07,0,41.61,5.32,55.63,15.94,14.02,10.63,21.03,28.38,21.03,53.25,0,12.66-2.15,23.07-6.45,31.21-4.3,8.14-10.06,14.59-17.3,19.33-7.24,4.75-15.6,8.14-25.1,10.18-9.5,2.04-19.45,3.05-29.85,3.05h-113.97Z"/>
      </g>
    </g>
  </g>
</svg>
